!!!COM:	Josquin des Pres
**kern	**kern
*part2	*part1
*staff2	*staff1
*clefGv2	*clefG2
*k[]	*k[]
*M2/1	*M2/1
=1-	=1-
0r	1a
.	[1a
=2	=2
0r	2a]
.	4g
.	4f
.	2a
.	[2g
=3	=3
1e	4g]
.	4f
.	4e
.	4d
[1e	1c
=4	=4
2e]	2r
4d	1g
4c	.
2e	.
[2d	2f
=5	=5
4d]	2a
4c	.
4B	1g
4A	.
1G	.
.	4f
.	4e
=6	=6
2r	1d
1d	.
.	1a
2c	.
=7	=7
2e	2g
1d	1f
4c	4e
4B	4d
=8	=8
1A	0c
1e	.
=9	=9
2d	1r
1c	.
.	[1g
4B	.
4A	.
=10	=10
0G	2g]
.	4f
.	4e
.	2d
.	2g
=11	=11
1r	2f
.	2d
[1d	2f
.	2g
=12	=12
2d]	1.a
4c	.
4B	.
2A	.
2d	2f
=13	=13
2c	2g
2A	1a
2c	.
2d	2f
=14	=14
1.e	2g
.	2e
.	2g
2c	2a
=15	=15
2d	2f
1e	2g
.	1e
2c	.
=16	=16
2d	2r
2B	2g
2d	2f
2e	[2g
=17	=17
2c	4g]
.	4e
2d	2f
1B	2g
.	[2d
=18	=18
2r	4d]
.	4e
2d	4f
.	4g
2c	1a
[2d	.
=19	=19
4d]	2r
4B	.
2c	2a
2d	2f
[2A	2a
=20	=20
4A]	2g
4B	.
4c	1e
4d	.
1e	.
.	2g
=21	=21
2r	2f
2e	2g
2c	2e
2e	2g
=22	=22
2d	2f
1B	2g
.	1d
2d	.
=23	=23
2c	1a
2d	.
2B	2g
2d	2f
=24	=24
2c	2e
2d	2d
1A	1a
=25	=25
1e	1.g
2d	.
2c	2a
=26	=26
2B	2g
2A	2.a
1e	.
.	4g
.	2e
=27	=27
1.d	1f
.	1g
2e	.
=28	=28
2d	2f
2.e	2.g
4d	4f
2B	2d
=29	=29
1c	1e
1d	4d
.	4e
.	4f
.	4g
=30	=30
2c	2a
2.d	2.b
4c	4a
2A	[2a
=31	=31
1B	2a]
.	2g
1A	1a
==	==
*-	*-
